src/parts/mouth/Tongue.svg

<svg>
  <g transform="translate(76.000000, 82.000000)">
    <g
      id="Mouth/Tongue"
      transform="translate(2.000000, 52.000000)"
    >
      <defs>
        <path
          id="Tongue-path1"
          d="M29,15.6086957 C30.410031,25.2313711 41.062182,33 54,33 C66.9681454,33 77.6461342,25.183301 79,14.7391304 C79.1012093,14.3397326 78.775269,13 76.826087,13 C56.838426,13 41.7395748,13 31.173913,13 C29.3833142,13 28.870211,14.2404669 29,15.6086957 Z"
        />
      </defs>
      <mask
        id="Tongue-mask1"
        fill="white"
      >
        <use href="#Tongue-path1" />
      </mask>
      <use
        id="Mouth"
        opacity="0.699999988"
        fill="#000000"
        fillRule="evenodd"
        href="#Tongue-path1"
      />
      <rect
        id="Teeth"
        fill="#FFFFFF"
        fillRule="evenodd"
        mask="url('#Tongue-mask1')"
        x="39"
        y="2"
        width="31"
        height="16"
        rx="5"
      />
      <path
        id="Tongue"
        d="M65.9841079,23.7466656 C65.9945954,23.8296335 66,23.9141856 66,24 L66,33 C66,39.0751322 61.0751322,44 55,44 L54,44 C47.9248678,44 43,39.0751322 43,33 L43,24 L43,24 C43,23.9141856 43.0054046,23.8296335 43.0158921,23.7466656 C43.0053561,23.6651805 43,23.5829271 43,23.5 C43,21.5670034 45.9101491,20 49.5,20 C51.510438,20 53.3076958,20.4914717 54.5,21.2634601 C55.6923042,20.4914717 57.489562,20 59.5,20 C63.0898509,20 66,21.5670034 66,23.5 C66,23.5829271 65.9946439,23.6651805 65.9841079,23.7466656 Z"
        fill="#FF4F6D"
        fillRule="evenodd"
      />
    </g>
  </g>
</svg>

<svg>
  <g transform="translate(76 82)">
    <g id="Mouth/Tongue" transform="translate(2 52)">
      <defs>
        <path id="Tongue-path1" d="M29 15.609C30.41 25.23 41.062 33 54 33c12.968 0 23.646-7.817 25-18.26.101-.4-.225-1.74-2.174-1.74H31.174c-1.79 0-2.304 1.24-2.174 2.609Z"/>
      </defs>
      <mask id="Tongue-mask1" fill="#fff">
        <use href="#Tongue-path1"/>
      </mask>
      <use id="Mouth" fill="#000" href="#Tongue-path1" opacity=".7"/>
      <rect id="Teeth" width="31" height="16" x="39" y="2" fill="#FFF" mask="url('#Tongue-mask1')" rx="5"/>
      <path id="Tongue" fill="#FF4F6D" d="M65.984 23.747c.01.083.016.167.016.253v9c0 6.075-4.925 11-11 11h-1c-6.075 0-11-4.925-11-11v-9c0-.086.005-.17.016-.253A1.922 1.922 0 0 1 43 23.5c0-1.933 2.91-3.5 6.5-3.5 2.01 0 3.808.491 5 1.263 1.192-.772 2.99-1.263 5-1.263 3.59 0 6.5 1.567 6.5 3.5 0 .083-.005.165-.016.247Z"/>
    </g>
  </g>
</svg>
